X: 1588
T: Anhysbys
R: jig
M: 6/8
K: Amixolydian
|:DED DED|EGF ECE|DED DED|cBc B2D|
DED DED|EFG ECE|GAG GEC|1 DED D3:|2 DED DFA||
|:dAA dAF|cBc EFG|dAd dAB|cdc BAG|
ABc AFD|EGF ECE|GAG GEC|1 DED DFA:|2 DED D3||

